packages/katcn/src/icons/svg/ask-solid.svg

<svg xmlns="http://www.w3.org/2000/svg" fill="none" viewBox="0 0 22 22"><path fill="#000" d="M11 1C5.5 1 1 5.5 1 11s4.5 10 10 10 10-4.5 10-10S16.5 1 11 1"/><path fill="#fff" d="M11 13.9c-.6 0-1-.4-1-1v-1c0-.6.4-1 1-1 1.3 0 2.3-1 2.3-2.3s-1-2.3-2.3-2.3-2.3 1-2.3 2.3c0 .6-.4 1-1 1s-1-.4-1-1c0-2.4 1.9-4.3 4.3-4.3s4.3 1.9 4.3 4.3c0 2-1.4 3.7-3.3 4.2v.1c0 .6-.4 1-1 1m0 3.8c-.6 0-1-.4-1-1v-1c0-.6.4-1 1-1s1 .4 1 1v1c0 .6-.4 1-1 1"/></svg>

<svg width="22" height="22" viewBox="0 0 22 22" fill="none" xmlns="http://www.w3.org/2000/svg">
<path d="M11 1C5.5 1 1 5.5 1 11C1 16.5 5.5 21 11 21C16.5 21 21 16.5 21 11C21 5.5 16.5 1 11 1Z" fill="black"/>
<path d="M11 13.9C10.4 13.9 10 13.5 10 12.9V11.9C10 11.3 10.4 10.9 11 10.9C12.3 10.9 13.3 9.9 13.3 8.6C13.3 7.3 12.3 6.3 11 6.3C9.70001 6.3 8.70001 7.3 8.70001 8.6C8.70001 9.2 8.30001 9.6 7.70001 9.6C7.10001 9.6 6.70001 9.2 6.70001 8.6C6.70001 6.2 8.60001 4.3 11 4.3C13.4 4.3 15.3 6.2 15.3 8.6C15.3 10.6 13.9 12.3 12 12.8V12.9C12 13.5 11.6 13.9 11 13.9Z" fill="white"/>
<path d="M11 17.7C10.4 17.7 10 17.3 10 16.7V15.7C10 15.1 10.4 14.7 11 14.7C11.6 14.7 12 15.1 12 15.7V16.7C12 17.3 11.6 17.7 11 17.7Z" fill="white"/>
</svg>
